en/_assets/organization/userpool.svg

<svg width="16" height="16" viewBox="0 0 16 16" fill="none" xmlns="http://www.w3.org/2000/svg">
<g clip-path="url(#clip0_4_38934)">
<path fill-rule="evenodd" clip-rule="evenodd" d="M5.11115 4.08325C4.54353 4.08325 4.08337 4.5434 4.08337 5.11103C4.08337 5.67866 4.54353 6.13881 5.11115 6.13881C5.67878 6.13881 6.13893 5.67866 6.13893 5.11103C6.13893 4.5434 5.67878 4.08325 5.11115 4.08325ZM2.58337 5.11103C2.58337 3.71498 3.7151 2.58325 5.11115 2.58325C6.50721 2.58325 7.63893 3.71498 7.63893 5.11103C7.63893 6.50708 6.50721 7.63881 5.11115 7.63881C3.7151 7.63881 2.58337 6.50708 2.58337 5.11103Z" fill="black"/>
<path fill-rule="evenodd" clip-rule="evenodd" d="M10.8889 4.08325C10.3213 4.08325 9.86115 4.5434 9.86115 5.11103C9.86115 5.67866 10.3213 6.13881 10.8889 6.13881C11.4565 6.13881 11.9167 5.67866 11.9167 5.11103C11.9167 4.5434 11.4565 4.08325 10.8889 4.08325ZM8.36115 5.11103C8.36115 3.71498 9.49287 2.58325 10.8889 2.58325C12.285 2.58325 13.4167 3.71498 13.4167 5.11103C13.4167 6.50708 12.285 7.63881 10.8889 7.63881C9.49287 7.63881 8.36115 6.50708 8.36115 5.11103Z" fill="black"/>
<path fill-rule="evenodd" clip-rule="evenodd" d="M10.8889 9.86108C10.3213 9.86108 9.86115 10.3212 9.86115 10.8889C9.86115 11.4565 10.3213 11.9166 10.8889 11.9166C11.4565 11.9166 11.9167 11.4565 11.9167 10.8889C11.9167 10.3212 11.4565 9.86108 10.8889 9.86108ZM8.36115 10.8889C8.36115 9.49281 9.49287 8.36108 10.8889 8.36108C12.285 8.36108 13.4167 9.49281 13.4167 10.8889C13.4167 12.2849 12.285 13.4166 10.8889 13.4166C9.49287 13.4166 8.36115 12.2849 8.36115 10.8889Z" fill="black"/>
<path fill-rule="evenodd" clip-rule="evenodd" d="M5.11115 9.86108C4.54353 9.86108 4.08337 10.3212 4.08337 10.8889C4.08337 11.4565 4.54353 11.9166 5.11115 11.9166C5.67878 11.9166 6.13893 11.4565 6.13893 10.8889C6.13893 10.3212 5.67878 9.86108 5.11115 9.86108ZM2.58337 10.8889C2.58337 9.49281 3.7151 8.36108 5.11115 8.36108C6.50721 8.36108 7.63893 9.49281 7.63893 10.8889C7.63893 12.2849 6.50721 13.4166 5.11115 13.4166C3.7151 13.4166 2.58337 12.2849 2.58337 10.8889Z" fill="black"/>
<path fill-rule="evenodd" clip-rule="evenodd" d="M2.88892 1.63892C2.19856 1.63892 1.63892 2.19856 1.63892 2.88892V5.44447C1.63892 5.85868 1.30313 6.19447 0.888916 6.19447C0.474702 6.19447 0.138916 5.85868 0.138916 5.44447V2.88892C0.138916 1.37013 1.37013 0.138916 2.88892 0.138916H5.44447C5.85869 0.138916 6.19447 0.474702 6.19447 0.888916C6.19447 1.30313 5.85869 1.63892 5.44447 1.63892H2.88892ZM9.80558 0.888916C9.80558 0.474702 10.1414 0.138916 10.5556 0.138916H13.1111C14.6299 0.138916 15.8611 1.37013 15.8611 2.88892V5.44447C15.8611 5.85869 15.5254 6.19447 15.1111 6.19447C14.6969 6.19447 14.3611 5.85869 14.3611 5.44447V2.88892C14.3611 2.19856 13.8015 1.63892 13.1111 1.63892H10.5556C10.1414 1.63892 9.80558 1.30313 9.80558 0.888916ZM0.888916 9.80558C1.30313 9.80558 1.63892 10.1414 1.63892 10.5556V13.1111C1.63892 13.8015 2.19856 14.3611 2.88892 14.3611H5.44447C5.85868 14.3611 6.19447 14.6969 6.19447 15.1111C6.19447 15.5254 5.85868 15.8611 5.44447 15.8611H2.88892C1.37013 15.8611 0.138916 14.6299 0.138916 13.1111V10.5556C0.138916 10.1414 0.474702 9.80558 0.888916 9.80558ZM15.1111 9.80558C15.5254 9.80558 15.8611 10.1414 15.8611 10.5556V13.1111C15.8611 14.6299 14.6299 15.8611 13.1111 15.8611H10.5556C10.1414 15.8611 9.80558 15.5254 9.80558 15.1111C9.80558 14.6969 10.1414 14.3611 10.5556 14.3611H13.1111C13.8015 14.3611 14.3611 13.8015 14.3611 13.1111V10.5556C14.3611 10.1414 14.6969 9.80558 15.1111 9.80558Z" fill="black"/>
</g>
<defs>
<clipPath id="clip0_4_38934">
<rect width="16" height="16" fill="white"/>
</clipPath>
</defs>
</svg>

<svg xmlns="http://www.w3.org/2000/svg" width="16" height="16" fill="none" viewBox="0 0 16 16">
    <g fill="#000" fill-rule="evenodd" clip-path="url(#clip0_4_38934)" clip-rule="evenodd">
        <path d="M5.111 4.083a1.028 1.028 0 1 0 0 2.056 1.028 1.028 0 0 0 0-2.056ZM2.583 5.111a2.528 2.528 0 1 1 5.056 0 2.528 2.528 0 0 1-5.056 0Zm8.306-1.028a1.028 1.028 0 1 0 0 2.056 1.028 1.028 0 0 0 0-2.056ZM8.36 5.111a2.528 2.528 0 1 1 5.056 0 2.528 2.528 0 0 1-5.056 0Zm2.529 4.75a1.028 1.028 0 1 0 0 2.056 1.028 1.028 0 0 0 0-2.056ZM8.36 10.89a2.528 2.528 0 1 1 5.056 0 2.528 2.528 0 0 1-5.056 0ZM5.111 9.861a1.028 1.028 0 1 0 0 2.056 1.028 1.028 0 0 0 0-2.056ZM2.583 10.89a2.528 2.528 0 1 1 5.056 0 2.528 2.528 0 0 1-5.056 0Z"/>
        <path d="M2.889 1.639c-.69 0-1.25.56-1.25 1.25v2.555a.75.75 0 0 1-1.5 0V2.89A2.75 2.75 0 0 1 2.889.14h2.555a.75.75 0 1 1 0 1.5H2.89Zm6.917-.75a.75.75 0 0 1 .75-.75h2.555a2.75 2.75 0 0 1 2.75 2.75v2.555a.75.75 0 1 1-1.5 0V2.89c0-.69-.56-1.25-1.25-1.25h-2.555a.75.75 0 0 1-.75-.75ZM.889 9.806a.75.75 0 0 1 .75.75v2.555c0 .69.56 1.25 1.25 1.25h2.555a.75.75 0 0 1 0 1.5H2.89a2.75 2.75 0 0 1-2.75-2.75v-2.555a.75.75 0 0 1 .75-.75Zm14.222 0a.75.75 0 0 1 .75.75v2.555a2.75 2.75 0 0 1-2.75 2.75h-2.555a.75.75 0 1 1 0-1.5h2.555c.69 0 1.25-.56 1.25-1.25v-2.555a.75.75 0 0 1 .75-.75Z"/>
    </g>
    <defs>
        <clipPath id="clip0_4_38934">
            <path fill="#fff" d="M0 0h16v16H0z"/>
        </clipPath>
    </defs>
</svg>
